X:1
T:Title
%%score { 1 | ( 2 3 ) }
L:1/8
M:9/8
K:Db
V:1 treble nm="Grand Piano"
V:2 bass 
V:3 bass 
V:1
 z3 z3[Q:1/4=116] [FA]3 | [FA]3- [FA]2 [FA] [CFA]2 [B,EG] | [B,EG]3 [DF]3 [Fd]3 | %3
 [Gd]3- [Gd]2 [Bd] [Ac]2 [GB] |[M:3/4] [FA]6 |[M:3/8] [FA]3 |[M:9/8] e3 c3 B2 A | %7
 [Fd]2 [GB] [FA]3 [_FB]3 | [Ec]3- [Ec]2 [Ac] [=Gd]2 [Gd] |[M:3/4] [Ge]6 |[M:3/8] [GB]3 | %11
[M:9/8] [FA]3- [FA]2 [FA] [CFA]2 [B,EG] | [B,EG]3 [DF]3 [Fd]3 | [Gd]3- [Gd]2 [Bd] [Ac]2 [GB] | %14
[M:3/4] [FA]6 |[M:3/8] A3 |[M:9/8] B3- B2 c d2 B | A2 F B3 A3 | A3- A2 A [CEG]2 [A,CE] | %19
[M:3/4] [A,DF]6 |[M:3/8] [A,CA]3 |[M:9/8] [Dd]3- [Dd]2 [Ad] [Ae]2 [Ae] | %22
 [Af]2 [Fd] [Ge]2 [Bd] [Ac]2 [GB] | %23
[M:21/16] [DFA]3/2- [DFA]3- [DFA]/[A,DF] [B,DG]3[K:bass] [G,CE]3/2 |[M:3/4] [F,D]6 |] %25
V:2
 z3 z3 [D,D]3 | [D,D]3- [D,D]2 [D,D] A,,2 C, | z3 A,3 [D,_C]3 | %3
 [G,B,]3- [G,B,]2 [G,D] [G,D]2 [G,D] |[M:3/4] [D,D]6 |[M:3/8] [D,D]3 | %6
[M:9/8][K:treble] [A,CG]3 [A,EG]3 [A,DG]2 [A,CG] | [D,A,]2 [D,B,] [D,D]3 [=D,A,]3 | %8
 [E,A,]3- [E,A,]2 [E,C] [E,B,]2 [E,E] |[M:3/4] [A,C]6 |[M:3/8] [A,C]3 | %11
[M:9/8] [D,D]3- [D,D]2 [D,D] A,,2 C, | z3 A,3 [D,_C]3 | [G,B,]3- [G,B,]2 [G,B,] [G,C]2 [G,D] | %14
[M:3/4] [D,D]6 |[M:3/8] [F,D]3 |[M:9/8] [G,DG]3- [G,DG]2 [G,CE][K:treble] [=G,B,_F]2 [G,DF] | %17
 [A,DF]2 [A,D] [A,DG]3 [A,DF]3 | [A,CF]3- [A,CF]2 [A,CF][K:bass] A,,2 A,, |[M:3/4] D,6 | %20
[M:3/8] E,3 |[M:9/8] [F,A,]3- [F,A,]2 [F,D] [A,C]2 [A,C] | [D,D]2 [D,_C] [G,B,]3 [G,=C]2 [G,D] | %23
[M:21/16] A,3/2- A,3- A,/A,, A,,3 A,,3/2 |[M:3/4] D,6 |] %25
V:3
 x9 | x9 | D,6 z3 | x9 |[M:3/4] x6 |[M:3/8] x3 |[M:9/8][K:treble] x9 | x9 | x9 |[M:3/4] x6 | %10
[M:3/8] x3 |[M:9/8] x9 | D,6 z3 | x9 |[M:3/4] x6 |[M:3/8] x3 |[M:9/8] x6[K:treble] x3 | x9 | %18
 x6[K:bass] x3 |[M:3/4] x6 |[M:3/8] x3 |[M:9/8] x9 | x9 |[M:21/16] x21/2 |[M:3/4] x6 |] %25

